src/icons/icon-master.svg

<?xml version="1.0" encoding="UTF-8" standalone="no"?>
<svg width="23px" height="15px" viewBox="0 0 23 15" version="1.1" xmlns="http://www.w3.org/2000/svg" xmlns:xlink="http://www.w3.org/1999/xlink">
    <!-- Generator: Sketch 3.6.1 (26313) - http://www.bohemiancoding.com/sketch -->
    <title>Shape</title>
    <desc>Created with Sketch.</desc>
    <defs></defs>
    <g id="Page-1" stroke="none" stroke-width="1" fill="none" fill-rule="evenodd">
        <path d="M17.3753724,8.16558118 C16.8384716,8.16558118 16.7308941,8.40343612 16.7308941,8.6028 C16.7308941,8.70248194 16.792085,8.87914598 17.0151357,8.87914598 C17.4523545,8.87914598 17.5451278,8.30375417 17.5293366,8.18038543 C17.5135454,8.18038543 17.4987411,8.16459423 17.3753724,8.16459423 L17.3753724,8.16558118 Z M11.0736971,7.19146161 C10.6749693,7.19146161 10.5979873,7.64447162 10.5979873,7.68987132 L11.411234,7.68987132 C11.4033384,7.65138027 11.4803205,7.19146161 11.0736971,7.19146161 L11.0736971,7.19146161 Z M5.54776449,8.16558118 C5.01086373,8.16558118 4.90328619,8.40343612 4.90328619,8.6028 C4.90328619,8.70248194 4.96447709,8.87914598 5.18752777,8.87914598 C5.62474659,8.87914598 5.71751988,8.30375417 5.70172868,8.18038543 C5.68593748,8.18038543 5.67113323,8.16459423 5.54776449,8.16459423 L5.54776449,8.16558118 Z M20.9974786,7.26745675 C20.674746,7.26745675 20.4220868,7.64348467 20.4220868,8.20407223 C20.4220868,8.5495047 20.5444686,8.77156844 20.8060103,8.77156844 C21.2047381,8.77156844 21.3892977,8.25736753 21.3892977,7.87344401 C21.3971933,7.45102944 21.2590203,7.26745675 20.9974786,7.26745675 L20.9974786,7.26745675 Z M16.2926883,0.950977238 C14.6267168,0.950977238 13.0999053,1.56486009 11.9254349,2.57056206 C12.7929639,3.3917044 13.4453378,4.42800182 13.8055745,5.59457663 L13.4828419,5.59457663 C13.1295138,4.51287951 12.5077354,3.54566859 11.6944886,2.77782155 C10.8812419,3.54566859 10.2594634,4.50498392 9.90613536,5.59457663 L9.58340273,5.59457663 C9.95943065,4.38161517 10.6581912,3.29991806 11.5790155,2.47088012 C10.3739496,1.4266871 8.80864704,0.798 7.09727587,0.798 C3.30541426,0.798 0.236,3.86840121 0.236,7.65927587 C0.236,11.4501505 3.30640121,14.5205517 7.09727587,14.5205517 C8.80864704,14.5205517 10.3749366,13.8908777 11.5790155,12.8545803 C10.7499775,12.1025244 10.1054992,11.1580134 9.70677147,10.0911205 L10.0364127,10.0911205 C10.4045451,11.027736 10.9730282,11.8636825 11.6944886,12.5397432 C12.415949,11.8646695 12.9834452,11.027736 13.3525645,10.0911205 L13.6822058,10.0911205 C13.3061778,11.1116267 12.7001906,12.0176467 11.924448,12.7470027 C13.0989184,13.7527047 14.6257299,14.3665876 16.2917014,14.3665876 C19.9907897,14.3665876 23,11.3583642 23,7.65828892 C23,3.95821366 19.9917766,0.949990288 16.2917014,0.949990288 L16.2926883,0.950977238 Z M3.12973718,9.43973354 L3.54425615,6.82234234 L2.60764067,9.43973354 L2.10923096,9.43973354 L2.04804006,6.82234234 L1.60292564,9.43973354 L0.897256449,9.43973354 L1.48054385,5.96270895 L2.54743672,5.96270895 L2.57803217,8.09649469 L3.29949256,5.96270895 L4.45027618,5.96270895 L3.87488437,9.43973354 L3.13072413,9.43973354 L3.12973718,9.43973354 Z M5.62474659,9.43973354 L5.64744643,9.16338756 C5.63165524,9.16338756 5.4174871,9.50092443 4.89539059,9.50092443 C4.62694021,9.50092443 4.1897214,9.35485584 4.1897214,8.71827314 C4.1897214,7.9050264 4.8499909,7.63657602 5.4865736,7.63657602 C5.58625554,7.63657602 5.80141062,7.65236722 5.80141062,7.65236722 C5.80141062,7.65236722 5.82411047,7.60598058 5.82411047,7.46780759 C5.82411047,7.2447569 5.62474659,7.21416146 5.35629621,7.21416146 C4.88058634,7.21416146 4.55785372,7.34443885 4.55785372,7.34443885 L4.66543126,6.7147648 C4.66543126,6.7147648 5.04935478,6.55389196 5.54776449,6.55389196 C5.80831927,6.55389196 6.55346646,6.58448741 6.55346646,7.43622519 L6.26922489,9.44664219 L5.62474659,9.44664219 L5.62474659,9.43973354 Z M8.33392413,8.5495047 C8.33392413,9.51671563 7.39730865,9.47822458 7.22854021,9.47822458 C6.61465736,9.47822458 6.43009772,9.39334689 6.40739788,9.38643824 L6.50707982,8.74985554 C6.50707982,8.74195994 6.81402124,8.85743308 7.15155812,8.85743308 C7.350922,8.85743308 7.60456813,8.84164188 7.60456813,8.60378695 C7.60456813,8.25045888 6.69163945,8.33533657 6.69163945,7.49840303 C6.69163945,6.76115144 7.23643581,6.54698331 7.78123217,6.54698331 C8.19575114,6.54698331 8.45630592,6.6002786 8.45630592,6.6002786 L8.36451958,7.2447569 C8.36451958,7.2447569 7.96579181,7.21416146 7.86610986,7.21416146 C7.60555508,7.21416146 7.46738209,7.26745675 7.46738209,7.45201639 C7.46738209,7.82804431 8.33491108,7.64348467 8.33491108,8.5495047 L8.33392413,8.5495047 Z M9.400817,7.3059478 L9.19355751,8.57220455 C9.17776631,8.67188649 9.20934871,8.81005948 9.46200789,8.81005948 C9.52319879,8.81005948 9.60018088,8.78735964 9.64656753,8.78735964 L9.55478118,9.40913809 C9.47779909,9.43183794 9.27053961,9.50092443 9.00998483,9.50092443 C8.67244795,9.50092443 8.42669742,9.30945615 8.42669742,8.87914598 C8.42669742,8.5870088 8.84121639,6.20845948 8.85700759,6.19266829 L9.58636358,6.19266829 L9.50938149,6.62297845 L9.86961821,6.62297845 L9.77783187,7.3059478 L9.40180395,7.3059478 L9.400817,7.3059478 Z M11.1733791,8.85644613 C11.5415114,8.85644613 11.9481347,8.67978209 11.9481347,8.67978209 L11.8178574,9.38545129 C11.8178574,9.38545129 11.5800024,9.50783308 11.0500103,9.50783308 C10.4667229,9.50783308 9.79164917,9.26208255 9.79164917,8.23368073 C9.79164917,7.3434519 10.3364455,6.55290501 11.0658015,6.55290501 C11.864244,6.55290501 12.1099945,7.13619241 12.1099945,7.61979788 C12.1099945,7.81126616 12.0182082,8.28796297 12.0182082,8.28796297 L10.5289008,8.28796297 C10.5289008,8.27217178 10.3907278,8.85545918 11.1733791,8.85545918 L11.1733791,8.85644613 Z M13.599302,7.43622519 C13.0929967,7.25956115 13.0545056,8.23466768 12.8393505,9.44664219 L12.0872947,9.44664219 L12.5403047,6.6219915 L13.2232741,6.6219915 L13.1620832,7.02861487 C13.1620832,7.02861487 13.4078337,6.58350046 13.7295794,6.58350046 C13.8213657,6.58350046 13.8677524,6.59139605 13.8677524,6.59139605 C13.775966,6.79075994 13.6831927,6.96742398 13.599302,7.43523824 L13.599302,7.43622519 Z M15.6945967,9.40124249 C15.6945967,9.40124249 15.3027775,9.50092443 15.058014,9.50092443 C14.190485,9.50092443 13.7453706,8.90184583 13.7453706,7.98891715 C13.7453706,6.61508285 14.5665129,5.88572686 15.411342,5.88572686 C15.78737,5.88572686 16.2324844,6.0623909 16.2324844,6.0623909 L16.1101026,6.83714659 C16.1101026,6.83714659 15.8110568,6.6298871 15.4419375,6.6298871 C14.9435278,6.6298871 14.4984134,7.10559697 14.4984134,7.96523035 C14.4984134,8.38764492 14.7056728,8.78637269 15.2198737,8.78637269 C15.4656243,8.78637269 15.825861,8.60970865 15.825861,8.60970865 L15.6955836,9.40025554 L15.6945967,9.40124249 Z M17.4513675,9.43973354 L17.4740674,9.16338756 C17.4582762,9.16338756 17.244108,9.50092443 16.7220115,9.50092443 C16.4535612,9.50092443 16.0163423,9.35485584 16.0163423,8.71827314 C16.0163423,7.9050264 16.6766118,7.63657602 17.3131945,7.63657602 C17.4128765,7.63657602 17.6280316,7.65236722 17.6280316,7.65236722 C17.6280316,7.65236722 17.6507314,7.60598058 17.6507314,7.46780759 C17.6507314,7.2447569 17.4513675,7.21416146 17.1829171,7.21416146 C16.7072073,7.21416146 16.3844747,7.34443885 16.3844747,7.34443885 L16.4920522,6.7147648 C16.4920522,6.7147648 16.8759757,6.55389196 17.3743854,6.55389196 C17.6349402,6.55389196 18.3800874,6.58448741 18.3800874,7.43622519 L18.0958458,9.44664219 C18.0879502,9.43874659 17.4513675,9.43874659 17.4513675,9.43874659 L17.4513675,9.43973354 Z M18.9633748,9.44762914 L18.211319,9.44762914 L18.664329,6.62297845 L19.3472983,6.62297845 L19.2861074,7.02960182 C19.2861074,7.02960182 19.531858,6.58448741 19.8536036,6.58448741 C19.94539,6.58448741 19.9917766,6.592383 19.9917766,6.592383 C19.8920947,6.79174689 19.807217,6.96841093 19.7233263,7.43622519 C19.2170209,7.25956115 19.1785299,8.24256328 18.9633748,9.44664219 L18.9633748,9.44762914 Z M21.1968425,9.43973354 L21.2274379,9.17917876 C21.2274379,9.17917876 20.9816874,9.48612018 20.5444686,9.48612018 C19.9384813,9.48612018 19.6384486,8.90283278 19.6384486,8.30375417 C19.6384486,7.37503429 20.1990361,6.56869621 20.8662143,6.56869621 C21.2965244,6.56869621 21.5718835,6.94472413 21.5718835,6.94472413 L21.7327563,5.9696176 L22.4621123,5.9696176 L21.9015247,9.43874659 L21.1958555,9.43874659 L21.1968425,9.43973354 Z M22.5637681,9.42492929 C22.5252771,9.44762914 22.4946816,9.45552473 22.4561906,9.45552473 C22.4176995,9.45552473 22.3792085,9.44762914 22.3486131,9.42492929 C22.310122,9.40222944 22.2874222,9.37854264 22.2637354,9.34005159 C22.2400486,9.30156055 22.2331399,9.2709651 22.2331399,9.23247405 C22.2331399,9.193983 22.2410355,9.15549196 22.2637354,9.12489651 C22.2864352,9.08640546 22.310122,9.06370561 22.3486131,9.04001882 C22.3871041,9.01633202 22.4176995,9.00942337 22.4561906,9.00942337 C22.4946816,9.00942337 22.5331727,9.01731897 22.5637681,9.04001882 C22.6022592,9.05581002 22.624959,9.08640546 22.6486458,9.12489651 C22.6723326,9.16338756 22.6792413,9.193983 22.6792413,9.23247405 C22.6792413,9.2709651 22.6713457,9.30945615 22.6486458,9.34005159 C22.625946,9.37854264 22.5953505,9.40913809 22.5637681,9.42492929 L22.5637681,9.42492929 Z M22.5400813,9.07160121 C22.5094859,9.05581002 22.4788904,9.04890137 22.448295,9.04890137 C22.4176995,9.04890137 22.3871041,9.05679697 22.3565086,9.07160121 C22.3259132,9.08739241 22.3032134,9.11009226 22.2874222,9.14068771 C22.271631,9.17128316 22.2647223,9.2018786 22.2647223,9.23247405 C22.2647223,9.2630695 22.2726179,9.29366495 22.2874222,9.32426039 C22.3032134,9.35485584 22.3259132,9.37755569 22.3565086,9.39334689 C22.3871041,9.40913809 22.4176995,9.41604674 22.448295,9.41604674 C22.4788904,9.41604674 22.5094859,9.40815114 22.5400813,9.39334689 C22.5706768,9.37854264 22.5933766,9.35485584 22.6091678,9.32426039 C22.624959,9.29366495 22.6318677,9.2630695 22.6318677,9.23247405 C22.6318677,9.2018786 22.6239721,9.17128316 22.6091678,9.14068771 C22.5933766,9.11009226 22.5706768,9.08739241 22.5400813,9.07160121 L22.5400813,9.07160121 Z M22.5094859,9.35584279 L22.486786,9.31735175 C22.4709948,9.2867563 22.4561906,9.2709651 22.448295,9.26405645 C22.4403994,9.2571478 22.4325038,9.25616085 22.4176995,9.25616085 L22.3949997,9.25616085 L22.3949997,9.35584279 L22.3565086,9.35584279 L22.3565086,9.11798786 L22.4413863,9.11798786 C22.4719818,9.11798786 22.487773,9.11798786 22.5025772,9.12588346 C22.5173815,9.13377906 22.5252771,9.14167466 22.5331727,9.14858331 C22.5410683,9.15647891 22.5410683,9.17128316 22.5410683,9.18707436 C22.5410683,9.20286555 22.5331727,9.2176698 22.5252771,9.233461 C22.5094859,9.2492522 22.4946816,9.25616085 22.4788904,9.25616085 C22.486786,9.25616085 22.4946816,9.26405645 22.5015903,9.27195205 C22.5084989,9.27984765 22.5242901,9.2946519 22.5400813,9.31833869 L22.5706768,9.36472534 L22.5094859,9.36472534 L22.5094859,9.35584279 Z M22.4946816,9.18608741 C22.4946816,9.17819181 22.4946816,9.17029621 22.486786,9.17029621 C22.4788904,9.16240061 22.4788904,9.16240061 22.4709948,9.15450501 C22.4630992,9.15450501 22.448295,9.14660941 22.4325038,9.14660941 L22.3861171,9.14660941 L22.3861171,9.2156959 L22.4325038,9.2156959 C22.4552036,9.2156959 22.4709948,9.2156959 22.4788904,9.2078003 C22.4946816,9.1999047 22.4946816,9.1920091 22.4946816,9.18510046 L22.4946816,9.18608741 Z" id="Shape" fill="#444444"></path>
    </g>
</svg>

<svg width="23" height="15" viewBox="0 0 23 15" xmlns="http://www.w3.org/2000/svg"><title>Shape</title><path d="M17.375 8.166c-.537 0-.644.237-.644.437 0 .1.061.276.284.276.437 0 .53-.575.514-.699-.015 0-.03-.015-.154-.015zm-6.301-.975c-.399 0-.476.453-.476.499h.813c-.008-.039.07-.499-.337-.499zm-5.526.975c-.537 0-.645.237-.645.437 0 .1.061.276.285.276.437 0 .53-.575.514-.699-.016 0-.03-.015-.154-.015zm15.45-.899c-.323 0-.576.376-.576.937 0 .346.122.568.384.568.399 0 .583-.515.583-.899.008-.422-.13-.606-.392-.606zM16.292.951a6.7 6.7 0 0 0-4.368 1.62 7.007 7.007 0 0 1 1.88 3.024h-.322a6.772 6.772 0 0 0-1.789-2.817 6.723 6.723 0 0 0-1.788 2.817h-.323A7.004 7.004 0 0 1 11.58 2.47 6.817 6.817 0 0 0 7.097.798 6.859 6.859 0 0 0 .236 7.659a6.86 6.86 0 0 0 11.343 5.196 7.07 7.07 0 0 1-1.872-2.764h.33a6.727 6.727 0 0 0 1.657 2.449 6.731 6.731 0 0 0 1.659-2.449h.33a6.937 6.937 0 0 1-1.759 2.656 6.7 6.7 0 0 0 4.368 1.62c3.699 0 6.708-3.009 6.708-6.709C23 3.958 19.992.95 16.292.95v.001zM3.13 9.44l.414-2.618-.936 2.618h-.499l-.061-2.618-.445 2.618H.897l.584-3.477h1.066l.031 2.133.721-2.133H4.45L3.875 9.44H3.13zm2.495 0l.022-.277c-.015 0-.23.338-.752.338-.268 0-.705-.146-.705-.783 0-.813.66-1.081 1.297-1.081.1 0 .314.015.314.015s.023-.046.023-.184c0-.223-.2-.254-.468-.254-.475 0-.798.13-.798.13l.107-.63s.384-.16.883-.16c.26 0 1.005.03 1.005.882l-.284 2.01h-.644V9.44zm2.709-.89c0 .967-.937.928-1.105.928-.614 0-.799-.085-.822-.092l.1-.636c0-.008.307.107.645.107.199 0 .453-.015.453-.253 0-.354-.913-.269-.913-1.106 0-.737.544-.951 1.09-.951.414 0 .674.053.674.053l-.091.645s-.4-.03-.499-.03c-.26 0-.399.052-.399.237 0 .376.868.191.868 1.098h-.001zM9.4 7.306l-.207 1.266c-.016.1.015.238.268.238.061 0 .138-.023.185-.023l-.092.622c-.077.023-.284.092-.545.092-.338 0-.583-.192-.583-.622 0-.292.414-2.67.43-2.686h.73l-.078.43h.36l-.091.683H9.4zm1.772 1.55c.369 0 .775-.176.775-.176l-.13.705s-.238.123-.768.123c-.583 0-1.258-.246-1.258-1.274 0-.89.544-1.681 1.274-1.681.798 0 1.044.583 1.044 1.067 0 .191-.092.668-.092.668h-1.49c0-.016-.137.567.645.567v.001zm2.426-1.42c-.506-.176-.544.799-.76 2.01h-.752l.453-2.824h.683l-.06.407s.245-.445.567-.445a.92.92 0 0 1 .138.007c-.092.2-.185.376-.269.844v.001zm2.096 1.965s-.392.1-.637.1c-.868 0-1.313-.6-1.313-1.512 0-1.374.822-2.103 1.666-2.103.376 0 .821.176.821.176l-.122.775s-.299-.207-.668-.207c-.498 0-.944.476-.944 1.335 0 .423.208.821.722.821.246 0 .606-.176.606-.176l-.13.79-.001.001zm1.756.039l.023-.277c-.016 0-.23.338-.752.338-.268 0-.706-.146-.706-.783 0-.813.66-1.081 1.297-1.081.1 0 .315.015.315.015s.023-.046.023-.184c0-.223-.2-.254-.468-.254-.476 0-.799.13-.799.13l.108-.63s.384-.16.882-.16c.26 0 1.006.03 1.006.882l-.284 2.01c-.008-.007-.645-.007-.645-.007zm1.512.008h-.752l.453-2.825h.683l-.06.407s.245-.446.567-.446c.091 0 .138.008.138.008-.1.2-.185.376-.269.844-.506-.176-.544.807-.76 2.01v.002zm2.234-.008l.03-.26s-.245.306-.683.306c-.606 0-.906-.583-.906-1.182 0-.929.561-1.735 1.228-1.735.43 0 .706.376.706.376l.16-.975h.73l-.56 3.469h-.706zm1.367-.015a.195.195 0 0 1-.108.03.178.178 0 0 1-.107-.03.226.226 0 0 1-.085-.085.187.187 0 0 1-.03-.108c0-.038.007-.077.03-.107a.226.226 0 0 1 .085-.085.187.187 0 0 1 .107-.03c.039 0 .077.007.108.03.038.016.061.046.085.085.023.038.03.069.03.107a.178.178 0 0 1-.03.108.218.218 0 0 1-.085.085zm-.024-.353a.197.197 0 0 0-.183 0 .156.156 0 0 0-.07.069.197.197 0 0 0 0 .183c.016.03.039.054.07.07a.197.197 0 0 0 .183 0 .151.151 0 0 0 .07-.07.197.197 0 0 0 0-.183.156.156 0 0 0-.07-.07zm-.03.284l-.023-.039a.18.18 0 0 0-.039-.053c-.008-.007-.015-.008-.03-.008h-.023v.1h-.038v-.238h.084c.031 0 .047 0 .062.008.014.008.022.016.03.023.008.007.008.022.008.038s-.008.03-.016.046c-.016.016-.03.023-.046.023.008 0 .016.008.023.016.006.008.022.023.038.046l.03.047h-.06v-.01zm-.015-.17c0-.008 0-.016-.008-.016l-.016-.015c-.008 0-.023-.008-.038-.008h-.047v.069h.047c.022 0 .038 0 .046-.008.016-.008.016-.016.016-.023v.001z" fill="#444" fill-rule="evenodd"/></svg>
